Sources/FrostedUI/Resources/Icons.xcassets/unpinFilled16.imageset/unpin-filled-16.svg

<svg width="16" height="16" viewBox="0 0 16 16" fill="none" xmlns="http://www.w3.org/2000/svg" data-fui-icon="true">
  <path
    d="M1.21973 1.21973C1.51262 0.926861 1.98739 0.926843 2.28027 1.21973L14.7803 13.7197C15.0731 14.0126 15.0731 14.4874 14.7803 14.7803C14.4874 15.0732 14.0126 15.0731 13.7197 14.7803L11.0273 12.0879C10.9711 12.0316 10.8948 12 10.8152 12H9.05C8.88431 12 8.75 12.1343 8.75 12.3V14.25C8.75 14.6641 8.41403 14.9998 8 15C7.58595 14.9998 7.25 14.6641 7.25 14.25V12.3C7.25 12.1343 7.11569 12 6.95 12H4.25488C2.67599 11.9997 1.68953 10.2894 2.48047 8.92285L3.88965 6.48926C3.96169 6.36477 3.99993 6.22293 4 6.0791V5.18481C4 5.10525 3.96839 5.02894 3.91213 4.97268L1.21973 2.28027C0.926833 1.98738 0.926833 1.51262 1.21973 1.21973ZM9.9502 1C11.0821 1.0003 11.9999 1.91789 12 3.0498V6.0791C12.0001 6.22293 12.0383 6.36477 12.1104 6.48926L13.5195 8.92285C13.7317 9.28947 13.8153 9.68063 13.7941 10.057C13.7814 10.2826 13.5137 10.3535 13.3539 10.1937L4.90875 1.74764C4.78699 1.62587 4.79171 1.42476 4.93601 1.3308C5.25659 1.12205 5.63878 1.00011 6.0498 1H9.9502Z"
    fill="currentColor"
  />
</svg>

<svg xmlns="http://www.w3.org/2000/svg" width="16" height="16" fill="none" data-fui-icon="true" viewBox="0 0 16 16"><path fill="currentColor" d="M1.22 1.22a.75.75 0 0 1 1.06 0l12.5 12.5a.75.75 0 0 1-1.06 1.06l-2.693-2.692a.3.3 0 0 0-.212-.088H9.05a.3.3 0 0 0-.3.3v1.95a.75.75 0 0 1-1.5 0V12.3a.3.3 0 0 0-.3-.3H4.255C2.676 12 1.69 10.29 2.48 8.923l1.41-2.434A.8.8 0 0 0 4 6.08v-.894a.3.3 0 0 0-.088-.212L1.22 2.28a.75.75 0 0 1 0-1.06M9.95 1A2.05 2.05 0 0 1 12 3.05v3.03a.8.8 0 0 0 .11.41l1.41 2.433c.212.366.295.758.274 1.134-.013.226-.28.297-.44.137L4.909 1.748c-.122-.122-.117-.323.027-.417.32-.209.703-.33 1.114-.331z"/></svg>
